X: 213
T: Jieme guandeng
L: 1/8
M: 2/4
K: Bb
z f f f [I:setbarnb 1]| 
f'> f' c'/ d'/ c'- | 
c' f' d'/ f'/ d'/ c'/ | 
bb3 | 
z f f f | 
f'> f' c'/ d'/ c'- | 
c' f' d'/ f'/ d'/ c'/ | 
bb3 | 
d' d' d'/ c'/ b | 
f' g f/ g/ f- | 
fb2g | 
f2b f/ g/ | 
b2d f | 
d c B c | 
B4 |]

@@@ Tune index: 9087
